packages/core/src/svgs/dvpn.svg

<svg width="24" height="24" viewBox="0 0 24 24" fill="none" xmlns="http://www.w3.org/2000/svg">
<g clip-path="url(#clip0_31_9623)">
<path d="M0 0H24V24H0V0Z" fill="#05274A"/>
<path d="M6 6H18V12.2271C18 15.4843 15.3129 18.8571 12 18.8571C8.68714 18.8571 6 15.4843 6 12.2271V6Z" fill="#162C51"/>
<path fill-rule="evenodd" clip-rule="evenodd" d="M18 6.03857H6V12.2314C6 15.4629 8.68714 18.8186 12 18.8186C15.3129 18.8186 18 15.4629 18 12.2314V6.03857ZM17.5714 6.42857H6.42857V12.24C6.42857 15.2829 8.92286 18.4286 12 18.4286C15.0771 18.4286 17.5714 15.2786 17.5714 12.24V6.42857Z" fill="#07B3F5"/>
<path d="M16.2858 7.71436H7.71436V10.1015L14.4472 14.7601L13.9672 15.1672L7.71436 10.9544V12.2829C7.71436 14.6701 9.63436 17.1429 12.0001 17.1429C14.3486 17.1429 16.2558 14.7086 16.2858 12.3386L10.4015 8.31436H11.5329L16.2858 11.6186V7.71436Z" fill="#07B3F5"/>
</g>
<defs>
<clipPath id="clip0_31_9623">
<rect width="24" height="24" fill="white"/>
</clipPath>
</defs>
</svg>

<svg xmlns="http://www.w3.org/2000/svg" width="24" height="24" fill="none" viewBox="0 0 24 24"><g clip-path="url(#a)"><path fill="#05274A" d="M0 0h24v24H0z"/><path fill="#162C51" d="M6 6h12v6.227c0 3.257-2.687 6.63-6 6.63s-6-3.373-6-6.63z"/><path fill="#07B3F5" fill-rule="evenodd" d="M18 6.039H6v6.192c0 3.232 2.687 6.588 6 6.588s6-3.356 6-6.588zm-.429.39H6.43v5.811c0 3.043 2.494 6.189 5.571 6.189s5.571-3.15 5.571-6.189z" clip-rule="evenodd"/><path fill="#07B3F5" d="M16.286 7.714H7.714v2.387l6.733 4.66-.48.406-6.253-4.213v1.329c0 2.387 1.92 4.86 4.286 4.86 2.349 0 4.256-2.434 4.286-4.804L10.4 8.314h1.132l4.753 3.305z"/></g><defs><clipPath id="a"><path fill="#fff" d="M0 0h24v24H0z"/></clipPath></defs></svg>
